Suru++-Ubuntu/apps/scalable/etherape.svg

<svg width="256" height="256" version="1.1" viewBox="0 0 67.73 67.73" xmlns="http://www.w3.org/2000/svg" xmlns:xlink="http://www.w3.org/1999/xlink">
 <defs>
  <linearGradient id="linearGradient1108" x1="296" x2="296" y1="-212" y2="236" gradientUnits="userSpaceOnUse">
   <stop style="stop-color:#ffffff" offset="0"/>
   <stop style="stop-color:#ffffff;stop-opacity:.09803922" offset=".125"/>
   <stop style="stop-color:#000000;stop-opacity:.09803922" offset=".925"/>
   <stop style="stop-color:#000000;stop-opacity:.49803922" offset="1"/>
  </linearGradient>
  <clipPath id="clipPath1082">
   <path d="M 361.9375,-212 C 507.2348,-212 528,-191.28677 528,-46.125 V 70.125 C 528,215.28618 507.2348,236 361.9375,236 H 214.0625 C 68.7652,236 48,215.28618 48,70.125 V -46.125 C 48,-191.28677 68.7652,-212 214.0625,-212 Z" style="fill:#8c59d9"/>
  </clipPath>
  <filter id="filter1015" x="-.02" y="-.03" width="1.046" height="1.05" style="color-interpolation-filters:sRGB">
   <feGaussianBlur stdDeviation="2.32"/>
  </filter>
  <filter id="a">
   <feGaussianBlur in="SourceAlpha" stdDeviation=".8"/>
   <feOffset dy=".4"/>
   <feComponentTransfer>
    <feFuncA slope=".3" type="linear"/>
   </feComponentTransfer>
   <feMerge>
    <feMergeNode/>
    <feMergeNode in="SourceGraphic"/>
   </feMerge>
  </filter>
 </defs>
 <g transform="translate(0,-229.26666)">
  <path d="m43.837429 232.36713c19.593906 0 22.394174 2.79326 22.394174 22.36889v15.67676c0 19.57555-2.800268 22.36889-22.394174 22.36889h-19.94152c-19.593908 0-22.394176-2.79334-22.394176-22.36889v-15.67676c0-19.57563 2.8002684-22.36889 22.394176-22.36889z" style="fill:none;opacity:.2;stroke-linecap:round;stroke-linejoin:round;stroke-width:1.0788312;stroke:#000000"/>
  <path transform="matrix(.26970778 0 0 .26970778 -7.1289177 220.49999)" d="m188.96876 45.999995c72.64865 0 83.03125 10.356615 83.03125 82.937505v58.125c0 72.58059-10.3826 82.9375-83.03125 82.9375h-73.9375c-72.648654 0-83.031254-10.35691-83.031254-82.9375v-58.125c0-72.58089 10.3826-82.937505 83.031254-82.937505z" style="filter:url(#filter1015);opacity:.2"/>
  <path d="m43.837426 232.36713c19.593907 0 22.394175 2.79326 22.394175 22.36889v15.67676c0 19.57555-2.800268 22.36889-22.394175 22.36889h-19.94152c-19.593906 0-22.394174-2.79334-22.394174-22.36889v-15.67676c0-19.57563 2.8002681-22.36889 22.394174-22.36889z" style="fill:#afbdc4"/>
  <path transform="matrix(.26458333 0 0 .26458333 0 229.26666)" d="m179.4043 12.048828c-4.5156-0.117431-8.61827-0.330078-13.71875-0.330078h-75.371097c-9.256964 0-17.521677 0.164478-24.898437 0.597656-3.688381 0.21659-7.155044 0.499673-10.41211 0.863282-3.257066 0.363608-6.304673 0.807305-9.15625 1.34375-2.851576 0.536444-5.506605 1.165293-7.978515 1.90039-2.471911 0.735097-4.760837 1.577543-6.878907 2.53711-2.118069 0.959566-4.065415 2.036242-5.855468 3.246093-1.790053 1.209852-3.422296 2.553109-4.910157 4.039063-1.48786 1.485953-2.831476 3.116424-4.042968 4.904297-1.211493 1.787872-2.291004 3.732049-3.251953 5.847656-0.96095 2.115607-1.802833 4.401935-2.539063 6.871094-0.7362301 2.469159-1.3669615 5.122176-1.9042969 7.970703-0.5373353 2.848527-0.9814382 5.892773-1.3457031 9.146484-0.3642649 3.253712-0.6482155 6.715678-0.8652344 10.400391-0.4340378 7.369425-0.5996094 15.626671-0.5996094 24.875v59.251951c0 9.24829 0.1655716 17.5056 0.5996094 24.875 0.2170189 3.6847 0.5009695 7.14669 0.8652344 10.40039 0.3642649 3.25371 0.8083678 6.29796 1.3457031 9.14649 0.5373354 2.84852 1.1680668 5.50154 1.9042969 7.9707 0.73623 2.46916 1.578113 4.75548 2.539063 6.87109 0.960949 2.11561 2.04046 4.05978 3.251953 5.84766 1.211492 1.78788 2.555108 3.41834 4.042968 4.9043 1.487861 1.48596 3.120104 2.82725 4.910157 4.03711 1.790053 1.20985 3.737399 2.28847 5.855468 3.24804 2.11807 0.95958 4.406996 1.80006 6.878907 2.53516 2.47191 0.7351 5.126939 1.36589 7.978515 1.90234 2.851577 0.53645 5.899184 0.97819 9.15625 1.3418s6.723729 0.64864 10.41211 0.86523c7.37676 0.43319 15.641473 0.59766 24.898437 0.59766h75.371097c5.10048 0 9.20315-0.21264 13.71875-0.33008v-74.99609-80.285158-72.396484z" style="fill:#008096"/>
  <g transform="matrix(.26458333 0 0 .26458333 -17.123422 253.50154)">
   <path transform="matrix(5.5877164,0,0,5.5877164,59.554989,78.992841)" d="m39-20a5 5 0 1 0 0 10 5 5 0 0 0 0-10zm-4 14c-0.554 0-1 0.446-1 1v2c0 0.554 0.446 1 1 1h2c0.554 0 1-0.446 1-1v-2c0-0.554-0.446-1-1-1zm6 0c-0.554 0-1 0.446-1 1v2c0 0.554 0.446 1 1 1h2c0.554 0 1-0.446 1-1v-2c0-0.554-0.446-1-1-1zm-6 6c-0.554 0-1 0.446-1 1v2c0 0.554 0.446 1 1 1h2c0.554 0 1-0.446 1-1v-2c0-0.554-0.446-1-1-1zm6 0c-0.554 0-1 0.446-1 1v2c0 0.554 0.446 1 1 1h2c0.554 0 1-0.446 1-1v-2c0-0.554-0.446-1-1-1z" style="fill:#eceff1;filter:url(#a)"/>
   <g transform="translate(0,13.958823)">
    <path d="m99.352315 2.9777655a17.356925 17.356925 0 0 1-17.356916 17.356926m17.356916-17.356926a17.356925 17.356925 0 0 1 17.356945-17.356926 17.356925 17.356925 0 0 1 17.35691 17.356926m57.85641 40.49949a28.928209 28.928209 0 0 1-14.46409 25.051828 28.928209 28.928209 0 0 1-28.9282 0 28.928209 28.928209 0 0 1-14.46412-25.051828m57.85641-46.285133a28.928209 28.928209 0 0 1 28.92822-28.92821" style="fill:none;stroke-linecap:round;stroke-width:11.571283;stroke:#e0f2f1"/>
    <path d="m134.06617 2.9777655v40.49949m57.85641-46.285133v46.285133m28.92822-75.213343h23.14257" style="fill:none;stroke-width:11.571283;stroke:#e0f2f1"/>
    <path d="m70.424113 20.334691h11.571286" style="fill:none;stroke-width:11.571283;stroke:#e0f2f1"/>
   </g>
  </g>
  <path transform="matrix(.13485389 0 0 .13485389 -4.9712557 260.95615)" d="M 361.9375,-212 C 507.2348,-212 528,-191.28677 528,-46.125 V 70.125 C 528,215.28618 507.2348,236 361.9375,236 H 214.0625 C 68.7652,236 48,215.28618 48,70.125 V -46.125 C 48,-191.28677 68.7652,-212 214.0625,-212 Z" clip-path="url(#clipPath1082)" style="fill:none;opacity:.5;stroke-linecap:round;stroke-linejoin:round;stroke-width:8;stroke:url(#linearGradient1108)"/>
 </g>
</svg>

<svg xmlns="http://www.w3.org/2000/svg" xmlns:xlink="http://www.w3.org/1999/xlink" width="256" height="256" version="1.1" viewBox="0 0 67.73 67.73">
 <defs>
  <linearGradient id="linearGradient1108" x1="296" x2="296" y1="-212" y2="236" gradientUnits="userSpaceOnUse" xlink:href="#linearGradient1013"/>
  <linearGradient id="linearGradient1013">
   <stop offset="0" style="stop-color:#ffffff"/>
   <stop style="stop-color:#ffffff;stop-opacity:0.09803922" offset=".125"/>
   <stop style="stop-color:#000000;stop-opacity:0.09803922" offset=".925"/>
   <stop offset="1" style="stop-color:#000000;stop-opacity:0.49803922"/>
  </linearGradient>
  <clipPath id="clipPath1082" clipPathUnits="userSpaceOnUse">
   <path d="M 361.9375,-212 C 507.2348,-212 528,-191.28677 528,-46.125 V 70.125 C 528,215.28618 507.2348,236 361.9375,236 H 214.0625 C 68.7652,236 48,215.28618 48,70.125 V -46.125 C 48,-191.28677 68.7652,-212 214.0625,-212 Z" style="fill:#8c59d9"/>
  </clipPath>
  <filter style="color-interpolation-filters:sRGB" id="filter1015" width="1.046" height="1.05" x="-.02" y="-.03">
   <feGaussianBlur stdDeviation="2.32"/>
  </filter>
  <filter id="a">
   <feGaussianBlur in="SourceAlpha" stdDeviation=".8"/>
   <feOffset dy=".4"/>
   <feComponentTransfer>
    <feFuncA slope=".3" type="linear"/>
   </feComponentTransfer>
   <feMerge>
    <feMergeNode/>
    <feMergeNode in="SourceGraphic"/>
   </feMerge>
  </filter>
 </defs>
 <g transform="translate(0,-229.26666)">
  <path d="m 43.837429,232.36713 c 19.593906,0 22.394174,2.79326 22.394174,22.36889 v 15.67676 c 0,19.57555 -2.800268,22.36889 -22.394174,22.36889 h -19.94152 c -19.5939075,0 -22.3941759,-2.79334 -22.3941759,-22.36889 v -15.67676 c 0,-19.57563 2.8002684,-22.36889 22.3941759,-22.36889 z" style="opacity:0.2;fill:none;stroke:#000000;stroke-width:1.0788312;stroke-linecap:round;stroke-linejoin:round"/>
  <path d="m 188.96876,45.999995 c 72.64865,0 83.03125,10.356615 83.03125,82.937505 v 58.125 c 0,72.58059 -10.3826,82.9375 -83.03125,82.9375 h -73.9375 C 42.382606,270 32.000006,259.64309 32.000006,187.0625 v -58.125 c 0,-72.58089 10.3826,-82.937505 83.031254,-82.937505 z" transform="matrix(0.26970778,0,0,0.26970778,-7.1289177,220.49999)" style="opacity:0.2;filter:url(#filter1015)"/>
  <path style="fill:#afbdc4" d="m 43.837426,232.36713 c 19.593907,0 22.394175,2.79326 22.394175,22.36889 v 15.67676 c 0,19.57555 -2.800268,22.36889 -22.394175,22.36889 h -19.94152 c -19.5939064,0 -22.3941745,-2.79334 -22.3941745,-22.36889 v -15.67676 c 0,-19.57563 2.8002681,-22.36889 22.3941745,-22.36889 z"/>
  <path style="fill:#008096" d="M 179.4043 12.048828 C 174.8887 11.931397 170.78603 11.71875 165.68555 11.71875 L 90.314453 11.71875 C 81.057489 11.71875 72.792776 11.883228 65.416016 12.316406 C 61.727635 12.532996 58.260972 12.816079 55.003906 13.179688 C 51.74684 13.543296 48.699233 13.986993 45.847656 14.523438 C 42.99608 15.059882 40.341051 15.688731 37.869141 16.423828 C 35.39723 17.158925 33.108304 18.001371 30.990234 18.960938 C 28.872165 19.920504 26.924819 20.99718 25.134766 22.207031 C 23.344713 23.416883 21.71247 24.76014 20.224609 26.246094 C 18.736749 27.732047 17.393133 29.362518 16.181641 31.150391 C 14.970148 32.938263 13.890637 34.88244 12.929688 36.998047 C 11.968738 39.113654 11.126855 41.399982 10.390625 43.869141 C 9.6543949 46.3383 9.0236635 48.991317 8.4863281 51.839844 C 7.9489928 54.688371 7.5048899 57.732617 7.140625 60.986328 C 6.7763601 64.24004 6.4924095 67.702006 6.2753906 71.386719 C 5.8413528 78.756144 5.6757812 87.01339 5.6757812 96.261719 L 5.6757812 155.51367 C 5.6757812 164.76196 5.8413528 173.01927 6.2753906 180.38867 C 6.4924095 184.07337 6.7763601 187.53536 7.140625 190.78906 C 7.5048899 194.04277 7.9489928 197.08702 8.4863281 199.93555 C 9.0236635 202.78407 9.6543949 205.43709 10.390625 207.90625 C 11.126855 210.37541 11.968738 212.66173 12.929688 214.77734 C 13.890637 216.89295 14.970148 218.83712 16.181641 220.625 C 17.393133 222.41288 18.736749 224.04334 20.224609 225.5293 C 21.71247 227.01526 23.344713 228.35655 25.134766 229.56641 C 26.924819 230.77626 28.872165 231.85488 30.990234 232.81445 C 33.108304 233.77403 35.39723 234.61451 37.869141 235.34961 C 40.341051 236.08471 42.99608 236.7155 45.847656 237.25195 C 48.699233 237.7884 51.74684 238.23014 55.003906 238.59375 C 58.260972 238.95736 61.727635 239.24239 65.416016 239.45898 C 72.792776 239.89217 81.057489 240.05664 90.314453 240.05664 L 165.68555 240.05664 C 170.78603 240.05664 174.8887 239.844 179.4043 239.72656 L 179.4043 164.73047 L 179.4043 84.445312 L 179.4043 12.048828 z" transform="matrix(0.26458333,0,0,0.26458333,0,229.26666)"/>
  <g transform="matrix(0.26458333,0,0,0.26458333,-17.123422,253.50154)">
   <path style="fill:#eceff1;filter:url(#a)" d="m 39,-20 a 5,5 0 1 0 0,10 5,5 0 0 0 0,-10 z m -4,14 c -0.554,0 -1,0.446 -1,1 v 2 c 0,0.554 0.446,1 1,1 h 2 c 0.554,0 1,-0.446 1,-1 v -2 c 0,-0.554 -0.446,-1 -1,-1 z m 6,0 c -0.554,0 -1,0.446 -1,1 v 2 c 0,0.554 0.446,1 1,1 h 2 c 0.554,0 1,-0.446 1,-1 v -2 c 0,-0.554 -0.446,-1 -1,-1 z m -6,6 c -0.554,0 -1,0.446 -1,1 v 2 c 0,0.554 0.446,1 1,1 h 2 c 0.554,0 1,-0.446 1,-1 V 1 C 38,0.446 37.554,0 37,0 Z m 6,0 c -0.554,0 -1,0.446 -1,1 v 2 c 0,0.554 0.446,1 1,1 h 2 c 0.554,0 1,-0.446 1,-1 V 1 C 44,0.446 43.554,0 43,0 Z" transform="matrix(5.5877164,0,0,5.5877164,59.554989,78.992841)"/>
   <g transform="translate(0,13.958823)">
    <path d="M 99.352315,2.9777655 A 17.356925,17.356925 0 0 1 81.995399,20.334691 M 99.352315,2.9777655 A 17.356925,17.356925 0 0 1 116.70926,-14.379161 17.356925,17.356925 0 0 1 134.06617,2.9777655 m 57.85641,40.4994905 a 28.928209,28.928209 0 0 1 -14.46409,25.051828 28.928209,28.928209 0 0 1 -28.9282,0 28.928209,28.928209 0 0 1 -14.46412,-25.051828 M 191.92258,-2.8078773 A 28.928209,28.928209 0 0 1 220.8508,-31.736087" style="fill:none;stroke:#e0f2f1;stroke-width:11.57128334;stroke-linecap:round"/>
    <path d="M 134.06617,2.9777655 V 43.477256 M 191.92258,-2.8078773 V 43.477256 m 28.92822,-75.213343 h 23.14257" style="fill:none;stroke:#e0f2f1;stroke-width:11.57128334"/>
    <path d="M 70.424113,20.334691 H 81.995399" style="fill:none;stroke:#e0f2f1;stroke-width:11.57128334"/>
   </g>
  </g>
  <path d="M 361.9375,-212 C 507.2348,-212 528,-191.28677 528,-46.125 V 70.125 C 528,215.28618 507.2348,236 361.9375,236 H 214.0625 C 68.7652,236 48,215.28618 48,70.125 V -46.125 C 48,-191.28677 68.7652,-212 214.0625,-212 Z" clip-path="url(#clipPath1082)" transform="matrix(0.13485389,0,0,0.13485389,-4.9712557,260.95615)" style="opacity:0.5;fill:none;stroke:url(#linearGradient1108);stroke-width:8;stroke-linecap:round;stroke-linejoin:round"/>
 </g>
</svg>
